X:1
T:fuga 1
T:Praeludium und Fuge C- Dur BWV 846
T:J.S. Bach
T:Fuga 1
%%score { ( 1 3 ) | ( 2 4 ) }
L:1/8
Q:1/4=55
M:4/4
K:C
V:1 treble nm="Piano" snm="Pno."
V:3 treble 
V:2 bass 
V:4 bass 
V:1
 z CDE F3/2G/4F/4 EA | z4 z GAB | c3/2d/4c/4 Be Ad- d/e/d/c/ | B/G/A/B/ c/B/c/d/ e/d/e/^f/ gB | %4
 cA d/c/B/A/ G>G F/E/F/G/ | A/G/A/B/ c4 B2 | z cde f3/2g/4f/4 ea | dg- g/a/g/f/ ea- a/b/a/g/ | %8
 f4 e>^f g2- | g2 ^f2 g/=f/e/d/ c/d/c/B/ | A/c/B/A/ G z z/ c/B/A/ ^Ge | %11
 dc/B/ A/^G/A/B/ c/^F/A/^G/ BA/B/ | c=f ed- dc/B/ TB>A | A2 z2 z4 | z4 z GAB | %15
 c3/2d/4c/4 Bc de =f3/2g/4f/4 | ea dg- g/a/g/=f/ ea | d_b ag/f/ g/f/g/e/ f/g/Pg/f/4g/4 | %18
 a/^c/d/g/ Pe>d d z z2 | z4 z2 z G | AB c3/2d/4c/4 Be Ad- | d/e/d/c/ B/c/d/e/ f/g/a/g/ f/e/d/c/ | %22
 B2 cd G c2 B | c2 B_B A d2 c | de f2- f/a/g/f/ e/f/e/d/ | c4 z/ G/4A/4=B/c/ d/e/f- | %26
 f/4c/4d/4e/4f/g/ a>b !fermata!c'4 |] %27
V:2
 z8 | z8 | z8 | z G,A,B, C3/2D/4C/4 B,E | A,D- D/E/D/C/ B,C- C_B, | A,D G,C z/ A,/B,/C/ D2 | %6
 G,2 z G, A,B, C3/2D/4C/4 | B,E A,D- D/E/D/=C/ =B,E- | E2 D2 C/B,/C/A,/ E/D/C/B,/ | %9
 C/A,/B,/C/ D/C/B,/A,/ G,2 z2 | C,3/2D,/4C,/4 B,,E, A,,D,- D,/E,/D,/C,/ | %11
 z E,^F,^G, A,3/2B,/4A,/4 G,C | ^F,B,- B,/C/B,/A,/ ^G, A,2 G, | A,2 z G,A,B, C3/2D/4C/4 | %14
 B,E A,D- DG, D2 | CA, E2 D z z2 | z A,B,^C D3/2E/4D/4 =CF | B,E- E/F/E/D/ ^C z z2 | %18
 z A,B,^C D3/2E/4D/4 =C^F | B,E- E/^F/E/D/ C4- | C/D/C/B,/ A,/G,/A,/^F,/ G,B, CD | %21
 E3/2F/4E/4 DG CF- F/G/F/E/ | D2 ED- DG, G,2- | G,C,D,E, F,3/2G,/4F,/4 E,A, | %24
 D,G,- G,/A,/G,/F,/ E,/D,/E,/F,/ G,/A,/_B,/G,/ | A,/E,/F,/G,/ A,/=B,/C/A,/ B,4 | C8 |] %27
V:3
 x8 | D G- G/A/G/F/ E/F/E/D/ C/D/C/B,/ | A,^F G2- GF/E/ FD | G=FED C z z G- | G F/E/ F2- F/F/E D2 | %5
 CF z/ G/F/E/ FD G2- | G2 z2 z4 | x8 | z GAB c3/2d/4c/4 Be | Ad- d/e/d/c/ B z z D | %10
 E^F G3/2A/4G/4 FB EA- | A/-B/A/^G/ ^F=F ED- D/E/^F/^G/ | A/^G/A/B/ G/^F/G/A/ B z z2 | %13
 z CDE F3/2G/4F/4 EA | DG- G/A/G/F/ EE^FG- | G^F ^GA- A=G A=B | c3/2d/4c/4 Be Ad- d/e/d/c/ | %17
 Bg ^cd ec de | A z z E ^FG A3/2B/4A/4 | Gc ^FB- B/c/B/A/ G/F/E/D/ | E2 D2- D/A/G/=F/ E/G/F/A/ | %21
 G2- G/A/_B c2 dG | G3 F- FE D2 | E A2 G- GFGA | _B3/2c/4B/4 Ad Gc- c/d/c/B/ | %25
 A/_B/A/G/ F/G/F/E/ D2- D>G | A2 z/ f/d !fermata![eg]4 |] %27
V:4
 x8 | x8 | x8 | x8 | z4 z C,D,E, | F,3/2G,/4F,/4 E,A, D,G,- G,/A,/G,/F,/ | %6
 E,/F,/E,/D,/ C,/D,/C,/B,,/ A,,D, A,^F, | G,/A,/_B,/G,/ ^C,D, A,2 E,2 | %8
 A,/B,/C/D/ C/B,/A,/G,/ C z z2 | z4 z G,,A,,B,, | x8 | B,, E,2 D, C, =F,2 E,- | %12
 E, D,2 E, =F,E,/D,/ E,2 | A,,2 z2 z4 | z G,,A,,B,, C,2- C,/D,/4C,/4B,,/E,/ | %15
 A,,D,- D,/E,/D,/C,/ B,,_B,, A,,G,, | A,, ^F,G,E, D,2 E,=F, | %17
 G,3/2A,/4G,/4 F,_B, E,A,- A,/B,/A,/G,/ | F,/E,/F,/D,/ G,A, D,4- | %19
 D,/E,/D,/C,/ B,,/A,,/G,,/^F,,/ E,,E,^F,G,- | G, A,/G,/ ^F,D, G,4- | G,4 A,2 =B,C | %22
 F,/A,/G,/F,/ E,/D,/C,/B,,/ C,/D,/E,/F,/ G,G,, | C,8- | C,8- | C,8- | !fermata!C,8 |] %27

